images/2820.svg

<?xml version="1.0" encoding="UTF-8"?>
<svg xmlns="http://www.w3.org/2000/svg" xmlns:xlink="http://www.w3.org/1999/xlink" width="300pt" height="300pt" viewBox="0 0 300 300" version="1.1">
<defs>
<g>
<symbol overflow="visible" id="glyph0-0">
<path style="stroke:none;" d="M 0.640625 2.296875 L 0.640625 -9.171875 L 7.140625 -9.171875 L 7.140625 2.296875 Z M 1.375 1.578125 L 6.421875 1.578125 L 6.421875 -8.4375 L 1.375 -8.4375 Z M 1.375 1.578125 "/>
</symbol>
<symbol overflow="visible" id="glyph0-1">
<path style="stroke:none;" d="M 1.28125 -9.484375 L 3 -9.484375 L 7.203125 -1.546875 L 7.203125 -9.484375 L 8.453125 -9.484375 L 8.453125 0 L 6.71875 0 L 2.515625 -7.921875 L 2.515625 0 L 1.28125 0 Z M 1.28125 -9.484375 "/>
</symbol>
<symbol overflow="visible" id="glyph0-2">
<path style="stroke:none;" d="M 1.28125 -9.484375 L 2.5625 -9.484375 L 2.5625 -5.59375 L 7.21875 -5.59375 L 7.21875 -9.484375 L 8.5 -9.484375 L 8.5 0 L 7.21875 0 L 7.21875 -4.515625 L 2.5625 -4.515625 L 2.5625 0 L 1.28125 0 Z M 1.28125 -9.484375 "/>
</symbol>
<symbol overflow="visible" id="glyph0-3">
<path style="stroke:none;" d="M 8.375 -8.75 L 8.375 -7.390625 C 7.9375 -7.796875 7.472656 -8.097656 6.984375 -8.296875 C 6.503906 -8.492188 5.988281 -8.59375 5.4375 -8.59375 C 4.351562 -8.59375 3.519531 -8.257812 2.9375 -7.59375 C 2.363281 -6.9375 2.078125 -5.984375 2.078125 -4.734375 C 2.078125 -3.484375 2.363281 -2.523438 2.9375 -1.859375 C 3.519531 -1.203125 4.351562 -0.875 5.4375 -0.875 C 5.988281 -0.875 6.503906 -0.972656 6.984375 -1.171875 C 7.472656 -1.367188 7.9375 -1.664062 8.375 -2.0625 L 8.375 -0.734375 C 7.925781 -0.421875 7.453125 -0.1875 6.953125 -0.03125 C 6.453125 0.113281 5.921875 0.1875 5.359375 0.1875 C 3.921875 0.1875 2.789062 -0.25 1.96875 -1.125 C 1.144531 -2.007812 0.734375 -3.210938 0.734375 -4.734375 C 0.734375 -6.253906 1.144531 -7.453125 1.96875 -8.328125 C 2.789062 -9.210938 3.921875 -9.65625 5.359375 -9.65625 C 5.921875 -9.65625 6.453125 -9.578125 6.953125 -9.421875 C 7.460938 -9.273438 7.9375 -9.050781 8.375 -8.75 Z M 8.375 -8.75 "/>
</symbol>
<symbol overflow="visible" id="glyph0-4">
<path style="stroke:none;" d="M 1.21875 -9.875 L 2.390625 -9.875 L 2.390625 0 L 1.21875 0 Z M 1.21875 -9.875 "/>
</symbol>
</g>
</defs>
<g id="surface32745">
<rect x="0" y="0" width="300" height="300" style="fill:rgb(100%,100%,100%);fill-opacity:1;stroke:none;"/>
<path style="fill:none;stroke-width:1.2;stroke-linecap:butt;stroke-linejoin:miter;stroke:rgb(0%,0%,0%);stroke-opacity:1;stroke-miterlimit:10;" d="M 232.628906 236.058594 L 203.597656 217.515625 "/>
<path style="fill:none;stroke-width:1.2;stroke-linecap:butt;stroke-linejoin:miter;stroke:rgb(0%,0%,100%);stroke-opacity:1;stroke-miterlimit:10;" d="M 263.203125 220.191406 L 247.917969 228.125 "/>
<path style="fill:none;stroke-width:1.2;stroke-linecap:butt;stroke-linejoin:miter;stroke:rgb(0%,0%,0%);stroke-opacity:1;stroke-miterlimit:10;" d="M 247.917969 228.125 L 232.628906 236.058594 "/>
<path style="fill:none;stroke-width:1.2;stroke-linecap:butt;stroke-linejoin:miter;stroke:rgb(0%,0%,0%);stroke-opacity:1;stroke-miterlimit:10;" d="M 203.597656 217.515625 L 204.371094 200.308594 "/>
<path style="fill:none;stroke-width:1.2;stroke-linecap:butt;stroke-linejoin:miter;stroke:rgb(0%,0%,100%);stroke-opacity:1;stroke-miterlimit:10;" d="M 204.371094 200.308594 L 205.144531 183.101562 "/>
<path style="fill:none;stroke-width:1.2;stroke-linecap:butt;stroke-linejoin:miter;stroke:rgb(0%,0%,100%);stroke-opacity:1;stroke-miterlimit:10;" d="M 205.144531 183.101562 L 220.429688 175.167969 "/>
<path style="fill:none;stroke-width:1.2;stroke-linecap:butt;stroke-linejoin:miter;stroke:rgb(0%,0%,0%);stroke-opacity:1;stroke-miterlimit:10;" d="M 220.429688 175.167969 L 235.71875 167.234375 "/>
<path style="fill:none;stroke-width:1.2;stroke-linecap:butt;stroke-linejoin:miter;stroke:rgb(0%,0%,100%);stroke-opacity:1;stroke-miterlimit:10;" d="M 205.144531 183.101562 L 190.628906 173.828125 "/>
<path style="fill:none;stroke-width:1.2;stroke-linecap:butt;stroke-linejoin:miter;stroke:rgb(0%,0%,0%);stroke-opacity:1;stroke-miterlimit:10;" d="M 190.628906 173.828125 L 176.113281 164.554688 "/>
<path style=" stroke:none;fill-rule:nonzero;fill:rgb(100%,100%,100%);fill-opacity:1;" d="M 200.144531 175.101562 L 210.144531 175.101562 L 210.144531 191.101562 L 200.144531 191.101562 Z M 200.144531 175.101562 "/>
<g style="fill:rgb(0%,0%,100%);fill-opacity:1;">
  <use xlink:href="#glyph0-1" x="200.144531" y="187.477539"/>
</g>
<path style="fill:none;stroke-width:1.2;stroke-linecap:butt;stroke-linejoin:miter;stroke:rgb(0%,0%,0%);stroke-opacity:1;stroke-miterlimit:10;" d="M 235.71875 167.234375 L 264.75 185.777344 "/>
<path style="fill:none;stroke-width:1.2;stroke-linecap:butt;stroke-linejoin:miter;stroke:rgb(0%,0%,0%);stroke-opacity:1;stroke-miterlimit:10;" d="M 264.75 185.777344 L 263.976562 202.984375 "/>
<path style="fill:none;stroke-width:1.2;stroke-linecap:butt;stroke-linejoin:miter;stroke:rgb(0%,0%,100%);stroke-opacity:1;stroke-miterlimit:10;" d="M 263.976562 202.984375 L 263.203125 220.191406 "/>
<path style=" stroke:none;fill-rule:nonzero;fill:rgb(100%,100%,100%);fill-opacity:1;" d="M 253.203125 212.191406 L 273.203125 212.191406 L 273.203125 228.191406 L 253.203125 228.191406 Z M 253.203125 212.191406 "/>
<g style="fill:rgb(0%,0%,100%);fill-opacity:1;">
  <use xlink:href="#glyph0-1" x="253.203125" y="224.567383"/>
  <use xlink:href="#glyph0-2" x="263.172852" y="224.567383"/>
</g>
<path style="fill:none;stroke-width:1.2;stroke-linecap:butt;stroke-linejoin:miter;stroke:rgb(0%,0%,0%);stroke-opacity:1;stroke-miterlimit:10;" d="M 176.113281 164.554688 L 180.226562 130.355469 "/>
<path style="fill:none;stroke-width:1.2;stroke-linecap:butt;stroke-linejoin:miter;stroke:rgb(0%,0%,0%);stroke-opacity:1;stroke-miterlimit:10;" d="M 168.476562 160.167969 L 171.765625 132.808594 "/>
<path style="fill:none;stroke-width:1.2;stroke-linecap:butt;stroke-linejoin:miter;stroke:rgb(0%,0%,100%);stroke-opacity:1;stroke-miterlimit:10;" d="M 146.808594 182.664062 L 161.460938 173.609375 "/>
<path style="fill:none;stroke-width:1.2;stroke-linecap:butt;stroke-linejoin:miter;stroke:rgb(0%,0%,0%);stroke-opacity:1;stroke-miterlimit:10;" d="M 161.460938 173.609375 L 176.113281 164.554688 "/>
<path style="fill:none;stroke-width:1.2;stroke-linecap:butt;stroke-linejoin:miter;stroke:rgb(0%,0%,0%);stroke-opacity:1;stroke-miterlimit:10;" d="M 180.226562 130.355469 L 213.566406 121.6875 "/>
<path style="fill:none;stroke-width:1.2;stroke-linecap:butt;stroke-linejoin:miter;stroke:rgb(0%,0%,0%);stroke-opacity:1;stroke-miterlimit:10;" d="M 156.046875 105.8125 L 180.226562 130.355469 "/>
<path style="fill:none;stroke-width:1.2;stroke-linecap:butt;stroke-linejoin:miter;stroke:rgb(0%,0%,0%);stroke-opacity:1;stroke-miterlimit:10;" d="M 213.566406 121.6875 L 222.730469 88.480469 "/>
<path style="fill:none;stroke-width:1.2;stroke-linecap:butt;stroke-linejoin:miter;stroke:rgb(0%,0%,0%);stroke-opacity:1;stroke-miterlimit:10;" d="M 206.667969 116.210938 L 214 89.644531 "/>
<path style="fill:none;stroke-width:1.2;stroke-linecap:butt;stroke-linejoin:miter;stroke:rgb(0%,0%,0%);stroke-opacity:1;stroke-miterlimit:10;" d="M 222.730469 88.480469 L 198.554688 63.941406 "/>
<path style="fill:none;stroke-width:1.2;stroke-linecap:butt;stroke-linejoin:miter;stroke:rgb(0%,0%,0%);stroke-opacity:1;stroke-miterlimit:10;" d="M 198.554688 63.941406 L 165.210938 72.605469 "/>
<path style="fill:none;stroke-width:1.2;stroke-linecap:butt;stroke-linejoin:miter;stroke:rgb(0%,0%,0%);stroke-opacity:1;stroke-miterlimit:10;" d="M 197.257812 72.652344 L 170.585938 79.585938 "/>
<path style="fill:none;stroke-width:1.2;stroke-linecap:butt;stroke-linejoin:miter;stroke:rgb(0%,0%,0%);stroke-opacity:1;stroke-miterlimit:10;" d="M 165.210938 72.605469 L 156.046875 105.8125 "/>
<path style="fill:none;stroke-width:1.2;stroke-linecap:butt;stroke-linejoin:miter;stroke:rgb(0%,0%,0%);stroke-opacity:1;stroke-miterlimit:10;" d="M 156.046875 105.8125 L 138.917969 107.613281 "/>
<path style="fill:none;stroke-width:1.2;stroke-linecap:butt;stroke-linejoin:miter;stroke:rgb(0%,0%,100%);stroke-opacity:1;stroke-miterlimit:10;" d="M 138.917969 107.613281 L 121.789062 109.414062 "/>
<path style="fill:none;stroke-width:1.2;stroke-linecap:butt;stroke-linejoin:miter;stroke:rgb(0%,0%,0%);stroke-opacity:1;stroke-miterlimit:10;" d="M 153.46875 114.234375 L 139.765625 115.675781 "/>
<path style="fill:none;stroke-width:1.2;stroke-linecap:butt;stroke-linejoin:miter;stroke:rgb(0%,0%,100%);stroke-opacity:1;stroke-miterlimit:10;" d="M 139.765625 115.675781 L 126.0625 117.117188 "/>
<path style="fill:none;stroke-width:1.2;stroke-linecap:butt;stroke-linejoin:miter;stroke:rgb(0%,0%,100%);stroke-opacity:1;stroke-miterlimit:10;" d="M 121.789062 109.414062 L 112.515625 123.929688 "/>
<path style="fill:none;stroke-width:1.2;stroke-linecap:butt;stroke-linejoin:miter;stroke:rgb(0%,0%,0%);stroke-opacity:1;stroke-miterlimit:10;" d="M 112.515625 123.929688 L 103.242188 138.445312 "/>
<path style=" stroke:none;fill-rule:nonzero;fill:rgb(100%,100%,100%);fill-opacity:1;" d="M 116.789062 101.414062 L 126.789062 101.414062 L 126.789062 117.414062 L 116.789062 117.414062 Z M 116.789062 101.414062 "/>
<g style="fill:rgb(0%,0%,100%);fill-opacity:1;">
  <use xlink:href="#glyph0-1" x="116.789062" y="113.790039"/>
</g>
<path style="fill:none;stroke-width:1.2;stroke-linecap:butt;stroke-linejoin:miter;stroke:rgb(0%,0%,0%);stroke-opacity:1;stroke-miterlimit:10;" d="M 103.242188 138.445312 L 114.378906 171.046875 "/>
<path style="fill:none;stroke-width:1.2;stroke-linecap:butt;stroke-linejoin:miter;stroke:rgb(0%,0%,0%);stroke-opacity:1;stroke-miterlimit:10;" d="M 96.6875 144.328125 L 105.59375 170.40625 "/>
<path style="fill:none;stroke-width:1.2;stroke-linecap:butt;stroke-linejoin:miter;stroke:rgb(0%,0%,0%);stroke-opacity:1;stroke-miterlimit:10;" d="M 69.445312 131.789062 L 103.242188 138.445312 "/>
<path style="fill:none;stroke-width:1.2;stroke-linecap:butt;stroke-linejoin:miter;stroke:rgb(0%,0%,0%);stroke-opacity:1;stroke-miterlimit:10;" d="M 114.378906 171.046875 L 130.59375 176.855469 "/>
<path style="fill:none;stroke-width:1.2;stroke-linecap:butt;stroke-linejoin:miter;stroke:rgb(0%,0%,100%);stroke-opacity:1;stroke-miterlimit:10;" d="M 130.59375 176.855469 L 146.808594 182.664062 "/>
<path style="fill:none;stroke-width:1.2;stroke-linecap:butt;stroke-linejoin:miter;stroke:rgb(0%,0%,0%);stroke-opacity:1;stroke-miterlimit:10;" d="M 114.378906 171.046875 L 91.714844 196.988281 "/>
<path style=" stroke:none;fill-rule:nonzero;fill:rgb(100%,100%,100%);fill-opacity:1;" d="M 136.808594 174.664062 L 156.808594 174.664062 L 156.808594 190.664062 L 136.808594 190.664062 Z M 136.808594 174.664062 "/>
<g style="fill:rgb(0%,0%,100%);fill-opacity:1;">
  <use xlink:href="#glyph0-1" x="136.808594" y="187.040039"/>
  <use xlink:href="#glyph0-2" x="146.77832" y="187.040039"/>
</g>
<path style="fill:none;stroke-width:1.2;stroke-linecap:butt;stroke-linejoin:miter;stroke:rgb(0%,0%,0%);stroke-opacity:1;stroke-miterlimit:10;" d="M 91.714844 196.988281 L 57.914062 190.332031 "/>
<path style="fill:none;stroke-width:1.2;stroke-linecap:butt;stroke-linejoin:miter;stroke:rgb(0%,0%,0%);stroke-opacity:1;stroke-miterlimit:10;" d="M 89.898438 188.371094 L 62.859375 183.042969 "/>
<path style="fill:none;stroke-width:1.2;stroke-linecap:butt;stroke-linejoin:miter;stroke:rgb(0%,0%,0%);stroke-opacity:1;stroke-miterlimit:10;" d="M 57.914062 190.332031 L 46.78125 157.730469 "/>
<path style="fill:none;stroke-width:1.2;stroke-linecap:butt;stroke-linejoin:miter;stroke:rgb(0%,0%,0%);stroke-opacity:1;stroke-miterlimit:10;" d="M 57.914062 190.332031 L 46.582031 203.304688 "/>
<path style="fill:none;stroke-width:1.2;stroke-linecap:butt;stroke-linejoin:miter;stroke:rgb(0%,80%,0%);stroke-opacity:1;stroke-miterlimit:10;" d="M 46.582031 203.304688 L 35.25 216.273438 "/>
<path style="fill:none;stroke-width:1.2;stroke-linecap:butt;stroke-linejoin:miter;stroke:rgb(0%,0%,0%);stroke-opacity:1;stroke-miterlimit:10;" d="M 46.78125 157.730469 L 69.445312 131.789062 "/>
<path style="fill:none;stroke-width:1.2;stroke-linecap:butt;stroke-linejoin:miter;stroke:rgb(0%,0%,0%);stroke-opacity:1;stroke-miterlimit:10;" d="M 55.152344 160.472656 L 73.28125 139.71875 "/>
<path style=" stroke:none;fill-rule:nonzero;fill:rgb(100%,100%,100%);fill-opacity:1;" d="M 21.25 208.273438 L 35.25 208.273438 L 35.25 224.273438 L 21.25 224.273438 Z M 21.25 208.273438 "/>
<g style="fill:rgb(0%,80%,0%);fill-opacity:1;">
  <use xlink:href="#glyph0-3" x="21.25" y="220.649414"/>
  <use xlink:href="#glyph0-4" x="30.556641" y="220.649414"/>
</g>
</g>
</svg>

<svg xmlns="http://www.w3.org/2000/svg" xmlns:xlink="http://www.w3.org/1999/xlink" width="300pt" height="300pt" viewBox="0 0 300 300"><defs><symbol overflow="visible"><path d="M.64 2.297v-11.47h6.5v11.47zm.735-.72h5.047V-8.436H1.375zm0 0"/></symbol><symbol overflow="visible" id="a"><path d="M1.28-9.484H3l4.203 7.937v-7.937h1.25V0H6.72L2.515-7.922V0H1.28zm0 0"/></symbol><symbol overflow="visible" id="b"><path d="M1.28-9.484h1.282v3.89H7.22v-3.89H8.5V0H7.22v-4.516H2.562V0H1.28zm0 0"/></symbol><symbol overflow="visible" id="c"><path d="M8.375-8.75v1.36c-.438-.407-.902-.708-1.39-.907-.48-.195-.997-.297-1.548-.297-1.085 0-1.917.336-2.5 1-.574.657-.86 1.61-.86 2.86 0 1.25.286 2.21.86 2.875.583.657 1.415.985 2.5.985.55 0 1.067-.098 1.547-.297.49-.195.954-.492 1.39-.89v1.328c-.448.312-.92.546-1.42.703-.5.143-1.032.217-1.595.217-1.438 0-2.57-.437-3.39-1.312C1.144-2.008.733-3.21.733-4.735c0-1.52.41-2.718 1.235-3.593.82-.883 1.952-1.328 3.39-1.328.562 0 1.093.078 1.593.234.508.15.984.37 1.422.672zm0 0"/></symbol><symbol overflow="visible" id="d"><path d="M1.22-9.875h1.17V0H1.22zm0 0"/></symbol></defs><g><path fill="#fff" d="M0 0h300v300H0z"/><path d="M232.63 236.06l-29.032-18.544" stroke-width="1.2" stroke="#000" stroke-miterlimit="10" fill="none"/><path d="M263.203 220.19l-15.285 7.935" stroke-width="1.2" stroke="#00f" stroke-miterlimit="10" fill="none"/><path d="M247.918 228.125l-15.29 7.934M203.598 217.516l.773-17.207" stroke-width="1.2" stroke="#000" stroke-miterlimit="10" fill="none"/><path d="M204.37 200.31l.775-17.208M205.145 183.102l15.285-7.934" stroke-width="1.2" stroke="#00f" stroke-miterlimit="10" fill="none"/><path d="M220.43 175.168l15.29-7.934" stroke-width="1.2" stroke="#000" stroke-miterlimit="10" fill="none"/><path d="M205.145 183.102l-14.516-9.274" stroke-width="1.2" stroke="#00f" stroke-miterlimit="10" fill="none"/><path d="M190.63 173.828l-14.517-9.273" stroke-width="1.2" stroke="#000" stroke-miterlimit="10" fill="none"/><path d="M200.145 175.102h10v16h-10zm0 0" fill="#fff"/><use xlink:href="#a" x="200.145" y="187.478" fill="#00f"/><path d="M235.72 167.234l29.03 18.543M264.75 185.777l-.773 17.207" stroke-width="1.2" stroke="#000" stroke-miterlimit="10" fill="none"/><path d="M263.977 202.984l-.774 17.207" stroke-width="1.2" stroke="#00f" stroke-miterlimit="10" fill="none"/><path d="M253.203 212.19h20v16h-20zm0 0" fill="#fff"/><g fill="#00f"><use xlink:href="#a" x="253.203" y="224.567"/><use xlink:href="#b" x="263.173" y="224.567"/></g><path d="M176.113 164.555l4.114-34.2M168.477 160.168l3.29-27.36" stroke-width="1.2" stroke="#000" stroke-miterlimit="10" fill="none"/><path d="M146.81 182.664l14.65-9.055" stroke-width="1.2" stroke="#00f" stroke-miterlimit="10" fill="none"/><path d="M161.46 173.61l14.653-9.055M180.227 130.355l33.34-8.667M156.047 105.813l24.18 24.542M213.566 121.688l9.164-33.208M206.668 116.21L214 89.646M222.73 88.48l-24.175-24.54M198.555 63.94l-33.344 8.665M197.258 72.652l-26.672 6.934M165.21 72.605l-9.163 33.207M156.047 105.813l-17.13 1.8" stroke-width="1.2" stroke="#000" stroke-miterlimit="10" fill="none"/><path d="M138.918 107.613l-17.13 1.8" stroke-width="1.2" stroke="#00f" stroke-miterlimit="10" fill="none"/><path d="M153.47 114.234l-13.704 1.442" stroke-width="1.2" stroke="#000" stroke-miterlimit="10" fill="none"/><path d="M139.766 115.676l-13.703 1.44M121.79 109.414l-9.274 14.516" stroke-width="1.2" stroke="#00f" stroke-miterlimit="10" fill="none"/><path d="M112.516 123.93l-9.274 14.515" stroke-width="1.2" stroke="#000" stroke-miterlimit="10" fill="none"/><path d="M116.79 101.414h10v16h-10zm0 0" fill="#fff"/><use xlink:href="#a" x="116.789" y="113.79" fill="#00f"/><path d="M103.242 138.445l11.137 32.602M96.688 144.328l8.906 26.078M69.445 131.79l33.797 6.655M114.38 171.047l16.214 5.808" stroke-width="1.2" stroke="#000" stroke-miterlimit="10" fill="none"/><path d="M130.594 176.855l16.215 5.81" stroke-width="1.2" stroke="#00f" stroke-miterlimit="10" fill="none"/><path d="M114.38 171.047l-22.665 25.94" stroke-width="1.2" stroke="#000" stroke-miterlimit="10" fill="none"/><path d="M136.81 174.664h20v16h-20zm0 0" fill="#fff"/><g fill="#00f"><use xlink:href="#a" x="136.809" y="187.04"/><use xlink:href="#b" x="146.778" y="187.04"/></g><path d="M91.715 196.988l-33.8-6.656M89.898 188.37l-27.04-5.327M57.914 190.332L46.78 157.73M57.914 190.332l-11.332 12.973" stroke-width="1.2" stroke="#000" stroke-miterlimit="10" fill="none"/><path d="M46.582 203.305L35.25 216.273" stroke-width="1.2" stroke="#0c0" stroke-miterlimit="10" fill="none"/><path d="M46.78 157.73l22.665-25.94M55.152 160.473l18.13-20.754" stroke-width="1.2" stroke="#000" stroke-miterlimit="10" fill="none"/><path d="M21.25 208.273h14v16h-14zm0 0" fill="#fff"/><g fill="#0c0"><use xlink:href="#c" x="21.25" y="220.649"/><use xlink:href="#d" x="30.557" y="220.649"/></g></g></svg>
